X:1
T:Title
%%score { ( 1 4 ) | ( 2 3 ) }
L:1/8
Q:1/4=93
M:6/8
K:Eb
V:1 treble nm="Grand Piano"
V:4 treble 
V:2 bass 
V:3 bass 
V:1
 E2 F G B2 | [DG]2 [DF] F E2 | E2 F G2 [B,FA] | .[B,GB]2 [_Gc] [=GB]3 | Bc[Ad] [Ge]2 [EB] | %5
w: William~J.~Kirkpatrick * * *|||||
 AB[Ec] [EB]2 [B,EG] | [B,E]2 [B,DF] [B,EG][GB][CFA] | [B,EG]2 [A,DF] [G,E]3 | %8
w: |||
 [Ge]>[Bd][Ac] [GB] [GB]2 | c>BA G G2 | [DF]G[B,DF] [DFB]2 [DFB] | F-[Fd]c z2 A, | %12
w: ||||
 Bc[Ad] [Ge]2 [_DGB] | [CA][GB][Ac] [B,GB]2 [B,EG] | [B,E]2 [B,DF] [B,EG] [B,GB]2 | %15
w: |||
 [B,DG]2 [A,DF] [G,E]3 |] %16
w: |
V:2
 [E,G,B,]2 [E,A,B,] [E,B,E] [E,G,E]2 | [B,,B,]2 [B,,A,] [E,A,B,] [E,G,B,]2 | %2
 [E,G,B,]2 [E,A,B,] [E,B,E]2 E, | z[K:treble] e[K:bass][E,E] [E,E]3 | %4
 [G,B,E]2 [F,B,] [E,B,]2 [E,G,] | [C,A,][B,,G,][A,,A,] [E,G,]2 E, | z3 .E,3 | B,,2 B,, E,3 | %8
 [E,B,]2 [E,E] [E,E] [E,E]2 | [EA]->[G,EA][K:bass][F,B,D] [E,B,E] [E,B,E]2 | .[B,,B,]3 z3 | %11
 z B,[F,=A,E] .[B,,F,]3 | [E,E]-[E,A,E][E,B,] [E,B,]2 E, | z B,[E,A,] E,2 E, | G,,2 B,, E, E,2 | %15
 B,,2 B,, E,3 |] %16
V:3
 x6 | x6 | x6 | .E,3[K:treble][K:bass] z3 | x6 | x6 | G,,2 B,, z EA,, | x6 | x6 | .A,3[K:bass] z3 | %10
 z EB,, B,,2 B,, | .F,3 z3 | .G,3 z3 | .E,3 z3 | x6 | x6 |] %16
V:4
 x6 | x6 | x6 | x6 | x6 | .E3 z3 | x6 | x6 | x6 | x6 | x6 | .[C=A]3 [DB]3 | x6 | x6 | x6 | x6 |] %16

